X: 14005
T: AUNT ESTHER'S REEL
C: Bob McQuillen May'08
B: Bob's Note Book 14 #5
%R: reel
%D:2008
Z: 2020 John Chambers <jc:trillian.mit.edu>
M: C	% The book has no time signature here.
L: 1/8
K: G
GA \
| B2dB ABGE | DEGA BGBd | g2dB GBdg | edBG A2GA |
| B2dB ABGE | DEGA BGBd | g2de dBGE | DEGA G2  :|
|: GE \
| D2DE DGBG | E2GB AGEG | B2de dege | dedB AGEG |
| D2DE DGBG | E2GE DGBd | g2ag edBd | edef g2  :|
%%begintext align
%% Aunt Esther (I call
%% her "aunt") was my father's third wife (my second
%% step-mother) and she was awfully nice to my wife,
%% Priscilla, and me. She's gone now, but I still
%% thought she ought to have a tune of her own. I
%% hope she can hear this, and I hope she likes
%% it if she does.!
%%endtext

%%sep 1 1 500

%%sep 1 1 500

